!!!OTL: Der Vorwirt Es wollt' ui Knaeblein ausreite,
!!!ARE: Europa, Suedosteuropa, Rumaenien, Banat, Sathmar
!!!YOR: 5, S. 21
!!    ????
!!!SCT: Q0089L
!!!YEM: Copyright 1995, estate of Helmut Schaffrath.
**kern
*ICvox
*Ivox
*M3/4
*k[b-e-]
*g:
{4fn
=1
2b-
4a
=2
4b-
4b-
4cc
=3
2.b-
=4
2a}
{4fn
=5
2b-
4a
=6
4b-
4b-
4cc
=7
2.b-
=8
2a}
{4b-
=9
2g
4g
=10
2dd
4dd
=11
4cc
4cc
4cc
=12
2dd}
{4b-
=13
2a
4g
=14
2dd
4cc
=15
4b-
4b-
4a
=16
2g}
==
!!!AGN: Ballade, Mord, Grab, Auferstehen, Geist
!! Wechselgesang VorsaengerIn - Gruppe.
!!!ONB: ESAC (Essen Associative Code) Database: BALLADE
!!!AMT: simple triple
!!!AIN: vox
!!!EED: Helmut Schaffrath
!!!EEV: 1.0
*-
